common/src/main/resources/icons/actions/stepOutCodeBlock.svg

<svg xmlns="http://www.w3.org/2000/svg" width="16" height="16" fill="#FBC02D" data-big="true" viewBox="0 0 24 24"><path d="m14.6 22.6 4.6-4.6-4.6-4.6L16 12l6 6-6 6zm-5.2 0L4.8 18l4.6-4.6L8 12l-6 6 6 6z"/><path fill="#64B5F6" d="M12 22a2 2 0 0 1-2-2 2 2 0 0 1 2-2 2 2 0 0 1 2 2 2 2 0 0 1-2 2m1-6h-2V6l-4.5 4.5-1.42-1.42L12 2.16l6.92 6.92-1.42 1.42L13 6z"/></svg>

<!--
  - The MIT License (MIT)
  -
  - Copyright (c) 2015-2024 Elior "Mallowigi" Boukhobza
  -
  - Permission is hereby granted, free of charge, to any person obtaining a copy
  - of this software and associated documentation files (the "Software"), to deal
  - in the Software without restriction, including without limitation the rights
  - to use, copy, modify, merge, publish, distribute, sublicense, and/or sell
  - copies of the Software, and to permit persons to whom the Software is
  - furnished to do so, subject to the following conditions:
  -
  - The above copyright notice and this permission notice shall be included in all
  - copies or substantial portions of the Software.
  -
  - THE SOFTWARE IS PROVIDED "AS IS", WITHOUT WARRANTY OF ANY KIND, EXPRESS OR
  - IMPLIED, INCLUDING BUT NOT LIMITED TO THE WARRANTIES OF MERCHANTABILITY,
  - FITNESS FOR A PARTICULAR PURPOSE AND NONINFRINGEMENT. IN NO EVENT SHALL THE
  - AUTHORS OR COPYRIGHT HOLDERS BE LIABLE FOR ANY CLAIM, DAMAGES OR OTHER
  - LIABILITY, WHETHER IN AN ACTION OF CONTRACT, TORT OR OTHERWISE, ARISING FROM,
  - OUT OF OR IN CONNECTION WITH THE SOFTWARE OR THE USE OR OTHER DEALINGS IN THE
  - SOFTWARE.
  -->


<svg data-big="true" xmlns="http://www.w3.org/2000/svg" version="1.1" width="16px" height="16px" fill="#FBC02D"
     viewBox="0 0 24 24">
  <path transform="translate(0 6)"
        d="M14.6,16.6L19.2,12L14.6,7.4L16,6L22,12L16,18L14.6,16.6M9.4,16.6L4.8,12L9.4,7.4L8,6L2,12L8,18L9.4,16.6Z"/>
  <path fill="#64B5F6"
        d="M12,22A2,2 0 0,1 10,20A2,2 0 0,1 12,18A2,2 0 0,1 14,20A2,2 0 0,1 12,22M13,16H11V6L6.5,10.5L5.08,9.08L12,2.16L18.92,9.08L17.5,10.5L13,6V16Z"/>
</svg>
